resources/haticons/SVG/sports_basketball.svg

<svg xmlns="http://www.w3.org/2000/svg" width="24" height="24"><path d="M8.953 12.984h2.063v8.953q-1.453-.141-3.258-1.008t-2.883-1.945q1.453-.797 2.648-2.578t1.43-3.422zm8.156 0h4.828q-.234 2.344-1.547 4.406-1.172-.563-2.109-1.852t-1.172-2.555zm-13.5 4.407q-1.359-2.109-1.547-4.406H6.89q-.234 1.266-1.172 2.555t-2.109 1.852zm11.438-4.407q.234 1.641 1.43 3.422t2.648 2.578q-1.031 1.078-2.836 1.945t-3.305 1.008v-8.953h2.063zm-6.094-1.968q-.234-1.641-1.43-3.422T4.875 5.016q1.031-1.078 2.836-1.945t3.305-1.008v8.953H8.953zm6.094 0h-2.063V2.063q1.453.141 3.258 1.008t2.883 1.945q-1.453.797-2.648 2.578t-1.43 3.422zm-8.156 0H2.063Q2.297 8.672 3.61 6.61q1.172.563 2.109 1.852t1.172 2.555zm10.218 0q.234-1.266 1.172-2.555t2.109-1.852q1.313 2.063 1.547 4.406h-4.828z"/></svg>

<!-- Generated by IcoMoon.io -->
<svg version="1.1" xmlns="http://www.w3.org/2000/svg" width="24" height="24" viewBox="0 0 24 24">
<title>sports_basketball</title>
<path d="M8.953 12.984h2.063v8.953q-1.453-0.141-3.258-1.008t-2.883-1.945q1.453-0.797 2.648-2.578t1.43-3.422zM17.109 12.984h4.828q-0.234 2.344-1.547 4.406-1.172-0.563-2.109-1.852t-1.172-2.555zM3.609 17.391q-1.359-2.109-1.547-4.406h4.828q-0.234 1.266-1.172 2.555t-2.109 1.852zM15.047 12.984q0.234 1.641 1.43 3.422t2.648 2.578q-1.031 1.078-2.836 1.945t-3.305 1.008v-8.953h2.063zM8.953 11.016q-0.234-1.641-1.43-3.422t-2.648-2.578q1.031-1.078 2.836-1.945t3.305-1.008v8.953h-2.063zM15.047 11.016h-2.063v-8.953q1.453 0.141 3.258 1.008t2.883 1.945q-1.453 0.797-2.648 2.578t-1.43 3.422zM6.891 11.016h-4.828q0.234-2.344 1.547-4.406 1.172 0.563 2.109 1.852t1.172 2.555zM17.109 11.016q0.234-1.266 1.172-2.555t2.109-1.852q1.313 2.063 1.547 4.406h-4.828z"></path>
</svg>
